X: 2
T:Scarborough Fair / Canticle (Melody)
C:Paul Simon, Art Garfunkel
M:3/4
L:1/4
K:G
"(7)" z3 |:
%
  E2 E | B/2 B3/2-B/2 B/2 | F3/2 G/2 F | E3- | E3 | z
w:1,5.~Are you go-ing to Scar-bor-ough Fair?_
  B d | e2 d | B ^c A | B3- | B3- | B3- | B z
w:Pars-ley, sage, rose-mar-y, and thyme.___
  e | e2 e | d2 B | B A G | F3- | F3 |
w:Re-mem-ber me to one who lives there,_
  E2 B | A2 G | F E D | E3- | E3- | E3- | E3 |:
w:She once was a true love of mine.___
%
  "(2,3,4)" E E E | B B B | (F G) F | E3- | E3 | z
w:2.~Tell her to make me a cam_ bric shirt,_
  B d | e2 d | B ^c A | B3- | B3- | B3 | z z
w:Pars-ley, sage, rose-mar-y, and thyme,__
  e | e2 e | d2 B | (B A) G | F3- | F3 |
w:With-out no seems nor nee_ dle work,_
  E2 B | A2 G | F E D | E3- | E3- | E3- | E3 :|
w:Then she'll be a true love of mine.___
%
W:3. Tell her to find me an acre of land,
W:Parsley, sage, rosemary, and thyme,
W:Between the salt water and the sea strands,
W:Then she'll be a true love of mine.
W:
W:4. Tell her to reap it with a sickle of leather,
W:Parsley, sage, rosemary, and thyme,
W:And gather it all in a bunch of heather,
W:Then she'll be a true love of mine.
W:
W:5. (Repeat 1)

